icons/op-glossar-24.svg

<svg width="24" height="24" viewBox="0 0 24 24" fill="none" xmlns="http://www.w3.org/2000/svg">
<path d="M12 8.23077C12 5.53846 6.4375 5 4 5V16.8462H5V17.9231C7 17.9231 11 17.2837 11 19H13C13 17.2837 17 17.9231 19 17.9231V16.8462H20V5C17.5625 5 12 5.53846 12 8.23077ZM5 6.07692C5.5 6.07692 5.9375 6.11058 6.375 6.14423H6.71875C8.6875 6.3125 10.75 6.75 10.9688 8.02885C11 8.09615 11 8.16346 11 8.23077V16.2404C9.53125 15.3317 6.8125 15.2308 5 15.2308V6.07692ZM19 15.2308C17.1875 15.2308 14.4688 15.3317 13 16.2404V8.23077C13 7.52404 14.0625 6.14423 19 6.07692V15.2308ZM7.03125 12.1683L6.5 13.7837H5.875L7.53125 8.63462H8.28125L9.9375 13.7837H9.25L8.75 12.1683H7.03125ZM8.625 11.6298L8.125 10.1827C8.03125 9.84615 7.96875 9.50962 7.875 9.24039C7.8125 9.54327 7.71875 9.84615 7.625 10.149L7.15625 11.6298H8.625ZM14.1562 13.3798L16.875 9.20673H14.4062V8.63462H17.6875V9.03846L15 13.2115H17.7188V13.7837H14.1562V13.3798Z" fill="black"/>
</svg>

<svg xmlns="http://www.w3.org/2000/svg" width="24" height="24" viewBox="0 0 24 24"><path d="M12 8.231C12 5.538 6.438 5 4 5v11.846h1v1.077c2 0 6-.639 6 1.077h2c0-1.716 4-1.077 6-1.077v-1.077h1V5c-2.438 0-8 .538-8 3.231ZM5 6.077c.5 0 .938.034 1.375.067h.344c1.969.168 4.031.606 4.25 1.885a.458.458 0 0 1 .031.202v8.009c-1.469-.908-4.188-1.009-6-1.009V6.077Zm14 9.154c-1.812 0-4.531.101-6 1.009V8.231c0-.707 1.062-2.087 6-2.154v9.154ZM7.031 12.168 6.5 13.784h-.625l1.656-5.149h.75l1.657 5.149H9.25l-.5-1.616H7.031Zm1.594-.538-.5-1.447c-.094-.337-.156-.673-.25-.943a9.917 9.917 0 0 1-.25.909l-.469 1.481h1.469Zm5.531 1.75 2.719-4.173h-2.469v-.572h3.282v.403L15 13.211h2.719v.573h-3.563v-.404Z"/></svg>
